src/parts/tops/ShortHairShortRound.svg

<svg>
  <g
    id="Top"
    strokeWidth="1"
    fillRule="evenodd"
  >
    <defs>
      <rect
        id="ShortHairShortRound-path2"
        x="0"
        y="0"
        width="264"
        height="280"
      />
      <path
        id="ShortHairShortRound-path1"
        d="M167.308863,35.006118 C147.121091,23.3065109 127.128954,25.2219854 112.036894,29.0299707 C96.9448338,32.8379559 88.0168242,43.6513048 80.3566792,59.6480618 C76.5956048,67.5028569 74.3660182,76.7914798 74.0230569,85.4813651 C73.8884429,88.8932666 74.3484305,92.415154 75.267729,95.7003546 C75.6049405,96.9061873 77.4232441,101.086987 77.9224658,97.70885 C78.0885348,96.584253 77.4804043,95.0327505 77.4215529,93.8376154 C77.3444374,92.2693977 77.4273028,90.6807875 77.5341822,89.1149098 C77.7340739,86.1874141 78.2559568,83.3154127 79.1847257,80.524647 C80.5119249,76.5367405 82.2013644,72.212859 84.7874413,68.8480942 C91.1883705,60.5205939 102.268658,60.045883 111.066257,55.4635848 C110.302881,56.8686624 107.359637,59.1432635 108.379389,60.7268592 C109.083576,61.8207003 111.749474,61.4890712 113.022219,61.4539693 C116.370996,61.3623702 119.734993,60.7796791 123.042844,60.306974 C128.255923,59.5618115 133.140585,58.0517626 138.046555,56.2181078 C142.06299,54.7164165 146.650012,53.3257139 149.66868,50.1404701 C154.539813,55.1881187 160.809849,59.9345599 167.070414,63.1428706 C172.68835,66.0222267 181.748751,67.461069 185.182761,73.3006826 C189.2479,80.2147477 187.37751,88.7073939 188.619138,96.2008069 C189.091302,99.05041 190.164155,98.986558 190.751315,96.4378281 C191.748406,92.1082634 192.219217,87.6102098 191.901961,83.1592929 C191.183568,73.1114668 187.496636,46.7057251 167.308863,35.006118 Z"
      />
      <filter
        id="filter1"
        x="-0.8%"
        y="-2.0%"
        width="101.5%"
        height="108.0%"
        filterUnits="objectBoundingBox"
      >
        <feOffset
          dx="0"
          dy="2"
          in="SourceAlpha"
          result="shadowOffsetOuter1"
        />
        <feColorMatrix
          values="0 0 0 0 0   0 0 0 0 0   0 0 0 0 0  0 0 0 0.16 0"
          type="matrix"
          in="shadowOffsetOuter1"
          result="shadowMatrixOuter1"
        />
        <feMerge>
          <feMergeNode in="shadowMatrixOuter1" />
          <feMergeNode in="SourceGraphic" />
        </feMerge>
      </filter>
    </defs>
    <mask
      id="ShortHairShortRound-mask2"
      fill="white"
    >
      <use href="#ShortHairShortRound-path2" />
    </mask>
    <g id="Mask" />
    <g
      id="Top/Short-Hair/Short-Round"
      mask="url('#ShortHairShortRound-mask2')"
    >
      <g transform="translate(-1.000000, 0.000000)">
        <mask
          id="ShortHairShortRound-mask1"
          fill="white"
        >
          <use href="#ShortHairShortRound-path1" />
        </mask>
        <use
          class="CustomColor"
          stroke="none"
          fill="var(--avataaar-hair-color)"
          fillRule="evenodd"
          href="#ShortHairShortRound-path1"
        />
      </g>
    </g>
  </g>
</svg>

<svg>
  <g id="Top">
    <defs>
      <path id="ShortHairShortRound-path2" d="M0 0h264v280H0z"/>
      <path id="ShortHairShortRound-path1" d="M167.309 35.006c-20.188-11.7-40.18-9.784-55.272-5.976-15.092 3.808-24.02 14.621-31.68 30.618-3.761 7.855-5.991 17.143-6.334 25.833-.135 3.412.325 6.934 1.245 10.22.337 1.205 2.155 5.386 2.654 2.008.167-1.125-.442-2.676-.5-3.871-.078-1.569.005-3.157.112-4.723.2-2.928.722-5.8 1.65-8.59 1.328-3.988 3.017-8.312 5.603-11.677 6.401-8.327 17.482-8.802 26.28-13.384-.764 1.405-3.707 3.68-2.688 5.263.705 1.094 3.37.762 4.643.727 3.349-.092 6.713-.674 10.02-1.147 5.214-.745 10.099-2.255 15.005-4.089 4.016-1.502 8.603-2.892 11.622-6.078 4.87 5.048 11.14 9.795 17.401 13.003 5.618 2.88 14.679 4.318 18.113 10.158 4.065 6.914 2.195 15.406 3.436 22.9.472 2.85 1.545 2.786 2.132.237.997-4.33 1.468-8.828 1.151-13.279-.718-10.048-4.405-36.453-24.593-48.153Z"/>
      <filter id="filter1" width="101.5%" height="108%" x="-.8%" y="-2%" filterUnits="objectBoundingBox">
        <feOffset dy="2" in="SourceAlpha" result="shadowOffsetOuter1"/>
        <feColorMatrix in="shadowOffsetOuter1" result="shadowMatrixOuter1" values="0 0 0 0 0 0 0 0 0 0 0 0 0 0 0 0 0 0 0.16 0"/>
        <feMerge>
          <feMergeNode in="shadowMatrixOuter1"/>
          <feMergeNode in="SourceGraphic"/>
        </feMerge>
      </filter>
    </defs>
    <mask id="ShortHairShortRound-mask2" fill="#fff">
      <use href="#ShortHairShortRound-path2"/>
    </mask>
    <g id="Top/Short-Hair/Short-Round" mask="url('#ShortHairShortRound-mask2')">
      <g transform="translate(-1)">
        <mask id="ShortHairShortRound-mask1" fill="#fff">
          <use href="#ShortHairShortRound-path1"/>
        </mask>
        <use fill="var(--avataaar-hair-color)" class="CustomColor" href="#ShortHairShortRound-path1"/>
      </g>
    </g>
  </g>
</svg>
